X:244
T:score46
L:1/8
Q:1/4=96
M:2/4
I:linebreak $
K:F
 z2 z z/ (A/ | A>G G/B/D/E/ | F) z z/ (A/ | A>G G/B/D/E/ | FF) z z/ (F/ |$ G>G A>A | cB) z z/ (B/ | %7
 B>B c>c | _ed) z2 |] %9
